gama.ui.shared/icons_svg/dark/editor/other.experiments.svg

<?xml version="1.0" encoding="UTF-8" standalone="no"?>
<!DOCTYPE svg PUBLIC "-//W3C//DTD SVG 1.1//EN" "http://www.w3.org/Graphics/SVG/1.1/DTD/svg11.dtd">
<svg xmlns="http://www.w3.org/2000/svg" xmlns:xl="http://www.w3.org/1999/xlink" version="1.1" xmlns:dc="http://purl.org/dc/elements/1.1/" viewBox="-598.4827 -3263.748 25 25" width="25" height="25">
  <defs/>
  <g id="SOURCES" stroke-opacity="1" fill="none" stroke="none" fill-opacity="1" stroke-dasharray="none">
    <title>SOURCES</title>
    <g id="SOURCES_Dark">
      <title>Dark</title>
      <g id="Graphic_11451">
        <path d="M -594.1427 -3263.248 L -577.8227 -3263.248 C -575.70195 -3263.248 -573.9827 -3261.529 -573.9827 -3259.408 L -573.9827 -3243.088 C -573.9827 -3240.9673 -575.70195 -3239.248 -577.8227 -3239.248 L -594.1427 -3239.248 C -596.2635 -3239.248 -597.9827 -3240.9673 -597.9827 -3243.088 L -597.9827 -3259.408 C -597.9827 -3261.529 -596.2635 -3263.248 -594.1427 -3263.248 Z" fill="#666"/>
        <path d="M -594.1427 -3263.248 L -577.8227 -3263.248 C -575.70195 -3263.248 -573.9827 -3261.529 -573.9827 -3259.408 L -573.9827 -3243.088 C -573.9827 -3240.9673 -575.70195 -3239.248 -577.8227 -3239.248 L -594.1427 -3239.248 C -596.2635 -3239.248 -597.9827 -3240.9673 -597.9827 -3243.088 L -597.9827 -3259.408 C -597.9827 -3261.529 -596.2635 -3263.248 -594.1427 -3263.248 Z" stroke="white" stroke-linecap="round" stroke-linejoin="round" stroke-width=".25"/>
      </g>
      <g id="Graphic_11450">
        <path d="M -585.41774 -3243.248 C -589.83374 -3243.248 -593.41774 -3246.832 -593.41774 -3251.248 C -593.41774 -3255.664 -589.83374 -3259.248 -585.41774 -3259.248 C -581.00174 -3259.248 -577.41774 -3255.664 -577.41774 -3251.248 C -577.41774 -3246.832 -581.00174 -3243.248 -585.41774 -3243.248 Z M -585.41774 -3244.048 C -581.44174 -3244.048 -578.21774 -3247.272 -578.21774 -3251.248 C -578.21774 -3255.224 -581.44174 -3258.448 -585.41774 -3258.448 C -589.39374 -3258.448 -592.61774 -3255.224 -592.61774 -3251.248 C -592.61774 -3247.272 -589.39374 -3244.048 -585.41774 -3244.048 Z M -588.61774 -3253.792 C -588.61774 -3254.056 -588.54574 -3254.32 -588.40974 -3254.544 C -587.99374 -3255.224 -587.10574 -3255.44 -586.43374 -3255.024 L -582.04174 -3252.344 C -581.86574 -3252.24 -581.72174 -3252.096 -581.61774 -3251.92 C -581.24974 -3251.32 -581.44174 -3250.528 -582.04174 -3250.16 L -586.43374 -3247.48 C -586.65774 -3247.344 -586.92174 -3247.272 -587.18574 -3247.272 C -587.97774 -3247.272 -588.62574 -3247.92 -588.62574 -3248.712 L -588.62574 -3253.8 Z M -587.81774 -3253.792 L -587.81774 -3248.704 C -587.81774 -3248.352 -587.52974 -3248.064 -587.17774 -3248.064 C -587.05774 -3248.064 -586.94574 -3248.096 -586.84174 -3248.16 L -582.44974 -3250.84 C -582.22574 -3250.976 -582.15374 -3251.272 -582.28974 -3251.496 C -582.32974 -3251.56 -582.38574 -3251.616 -582.44974 -3251.656 L -586.84174 -3254.336 C -587.14574 -3254.52 -587.53774 -3254.424 -587.72174 -3254.12 C -587.78574 -3254.016 -587.81774 -3253.904 -587.81774 -3253.784 Z" fill="#8eed62"/>
      </g>
    </g>
  </g>
</svg>

<svg height="25" viewBox="-598.483 -3263.748 25 25" width="25" xmlns="http://www.w3.org/2000/svg"><g fill="none"><path d="m-594.1427-3263.248h16.32c2.12075 0 3.84 1.719 3.84 3.84v16.32c0 2.1207-1.71925 3.84-3.84 3.84h-16.32c-2.1208 0-3.84-1.7193-3.84-3.84v-16.32c0-2.121 1.7192-3.84 3.84-3.84z" fill="#666"/><path d="m-594.1427-3263.248h16.32c2.12075 0 3.84 1.719 3.84 3.84v16.32c0 2.1207-1.71925 3.84-3.84 3.84h-16.32c-2.1208 0-3.84-1.7193-3.84-3.84v-16.32c0-2.121 1.7192-3.84 3.84-3.84z" stroke="#fff" stroke-linecap="round" stroke-linejoin="round" stroke-width=".25"/><path d="m-585.41774-3243.248c-4.416 0-8-3.584-8-8s3.584-8 8-8 8 3.584 8 8-3.584 8-8 8zm0-.8c3.976 0 7.2-3.224 7.2-7.2s-3.224-7.2-7.2-7.2-7.2 3.224-7.2 7.2 3.224 7.2 7.2 7.2zm-3.2-9.744c0-.264.072-.528.208-.752.416-.68 1.304-.896 1.976-.48l4.392 2.68c.176.104.32.248.424.424.368.6.176 1.392-.424 1.76l-4.392 2.68c-.224.136-.488.208-.752.208-.792 0-1.44-.648-1.44-1.44v-5.088zm.8 0v5.088c0 .352.288.64.64.64.12 0 .232-.032.336-.096l4.392-2.68c.224-.136.296-.432.16-.656-.04-.064-.096-.12-.16-.16l-4.392-2.68c-.304-.184-.696-.088-.88.216-.064.104-.096.216-.096.336z" fill="#8eed62"/></g></svg>
